images/bg.svg

<svg xmlns="http://www.w3.org/2000/svg" baseProfile="full" viewBox="0 0 1400 800"><rect width="300" height="300" x="1300" y="400" fill="#81C995" stroke="#81C995" rx="40" ry="40"><animateTransform attributeName="transform" attributeType="XML" begin="0s" dur="35s" from="0 1450 550" repeatCount="indefinite" to="360 1450 550" type="rotate"/></rect><path fill="#FDD663" stroke="#FDD663" d="M100 350a150 150 0 1 1 300 0q0 20-20 20H120q-20 0-20-20"><animateMotion begin="0s" dur="20s" path="M 800 -200 L 800 -300 L 800 -200" repeatCount="indefinite"/><animateTransform attributeName="transform" attributeType="XML" begin="0s" dur="30s" keyTimes="0 ; 0.5 ; 1" repeatCount="indefinite" type="rotate" values="0 210 530 ; -30 210 530 ; 0 210 530"/></path><circle cx="200" cy="150" r="20" fill="#1a73e8" stroke="#1a73e8"><animateMotion dur="5s" path="M 0 0 L 40 20 Z" repeatCount="indefinite"/></circle><path fill="#EE675C" stroke="#EE675C" d="M165 580h105q5-2 0-10l-47-87q-3-3-6 0l-52 87q-5 8 0 10"><animateTransform attributeName="transform" attributeType="XML" begin="0s" dur="35s" from="0 210 530" repeatCount="indefinite" to="360 210 530" type="rotate"/></path><circle cx="1200" cy="600" r="30" fill="#F1F3F4" stroke="#F1F3F4"><animateMotion dur="9s" path="M 0 0 L -20 40 Z" repeatCount="indefinite"/></circle><path fill="#F1F3F4" stroke="#F1F3F4" d="M100 350a40 40 0 1 1 80 0v80a40 40 0 1 1-80 0Z"><animateMotion begin="0s" dur="20s" path="M 140 390 L 180 360 L 140 390" repeatCount="indefinite"/><animateTransform attributeName="transform" attributeType="XML" begin="0s" dur="30s" keyTimes="0 ; 0.5 ; 1" repeatCount="indefinite" type="rotate" values="0 140 390; -60 140 390; 0 140 390"/></path><rect width="100" height="100" x="400" y="600" fill="#81C995" stroke="#81C995" rx="40" ry="40"><animateTransform attributeName="transform" attributeType="XML" begin="0s" dur="35s" from="-30 550 750" repeatCount="indefinite" to="330 550 750" type="rotate"/></rect></svg>

<svg
  version="1.1"
  baseProfile="full"
  width="100%" height="100%"
  xmlns="http://www.w3.org/2000/svg"
  viewBox="0 0 1400 800"
>
  <rect x="1300" y="400" rx="40" ry="40" width="300" height="300" stroke="rgb(129, 201, 149)" fill="rgb(129, 201, 149)">
    <animateTransform attributeType="XML" attributeName="transform" begin="0s" dur="35s" type="rotate" from="0 1450 550" to="360 1450 550" repeatCount="indefinite" />
  </rect>

  <path d="M 100 350 A 150 150 0 1 1 400 350 Q400 370 380 370 L 250 370 L 120 370 Q100 370 100 350" stroke="rgb(253, 214, 99)" fill="rgb(253, 214, 99)">
    <animateMotion path="M 800 -200 L 800 -300 L 800 -200" dur="20s" begin="0s" repeatCount="indefinite" />
    <animateTransform attributeType="XML" attributeName="transform" begin="0s" dur="30s" type="rotate" values="0 210 530 ; -30 210 530 ; 0 210 530" keyTimes="0 ; 0.5 ; 1" repeatCount="indefinite" />
  </path>

  <circle cx="200" cy="150" r="20" stroke="#1a73e8" fill="#1a73e8">
    <animateMotion path="M 0 0 L 40 20 Z" dur="5s" repeatCount="indefinite" />
  </circle>

  <path d="M 165 580 L 270 580 Q275 578 270 570 L 223 483 Q220 480 217 483 L 165 570 Q160 578 165 580" stroke="rgb(238, 103, 92)" fill="rgb(238, 103, 92)">
    <animateTransform attributeType="XML" attributeName="transform" begin="0s" dur="35s" type="rotate" from="0 210 530" to="360 210 530" repeatCount="indefinite" />
  </path>

  <circle cx="1200" cy="600" r="30" stroke="rgb(241, 243, 244)" fill="rgb(241, 243, 244)">
    <animateMotion path="M 0 0 L -20 40 Z" dur="9s" repeatCount="indefinite" />
  </circle>

  <path d="M 100 350 A 40 40 0 1 1 180 350 L 180 430 A 40 40 0 1 1 100 430 Z" stroke="rgb(241, 243, 244)" fill="rgb(241, 243, 244)">
    <animateMotion path="M 140 390 L 180 360 L 140 390" dur="20s" begin="0s" repeatCount="indefinite" />
    <animateTransform attributeType="XML" attributeName="transform" begin="0s" dur="30s" type="rotate" values="0 140 390; -60 140 390; 0 140 390" keyTimes="0 ; 0.5 ; 1" repeatCount="indefinite" />
  </path>

  <rect x="400" y="600" rx="40" ry="40" width="100" height="100" stroke="rgb(129, 201, 149)" fill="rgb(129, 201, 149)">
    <animateTransform attributeType="XML" attributeName="transform" begin="0s" dur="35s" type="rotate" from="-30 550 750" to="330 550 750" repeatCount="indefinite" />
  </rect>
</svg>
